libs/ui/packages/crypto-icons/src/svg/WICC.svg

<svg width="24" height="24" viewBox="0 0 24 24" fill="none">
<path d="M11.4821 3H12.4121C14.4428 3.09775 16.3749 3.90457 17.8721 5.28C18.1271 5.445 18.1271 5.85 17.8271 5.955C17.5721 6.015 17.3771 5.79 17.1821 5.655C15.5243 4.39254 13.4418 3.82163 11.372 4.06217C9.30218 4.30272 7.40612 5.33601 6.08206 6.945C5.00094 8.27467 4.38307 9.92071 4.32221 11.6334C4.26134 13.346 4.76081 15.0317 5.74482 16.4348C6.72883 17.8379 8.14366 18.8816 9.77463 19.4078C11.4056 19.9339 13.1637 19.9136 14.7821 19.35C16.1059 18.8918 17.2882 18.0982 18.2136 17.0466C19.139 15.9949 19.7759 14.7213 20.0621 13.35C20.1941 12.8032 20.2796 12.246 20.3171 11.685C20.3267 11.6028 20.3681 11.5277 20.4325 11.4757C20.4969 11.4237 20.579 11.3989 20.6614 11.4068C20.7438 11.4146 20.8198 11.4544 20.8732 11.5176C20.9266 11.5809 20.9531 11.6625 20.9471 11.745L20.9171 12.675C20.8004 14.844 19.8807 16.8919 18.3371 18.42C16.7718 19.9717 14.6884 20.8905 12.4871 21H11.6021C9.36591 20.887 7.25183 19.9459 5.67139 18.3599C4.09095 16.7739 3.15725 14.6565 3.05206 12.42V11.58C3.16112 9.36513 4.08003 7.26749 5.63419 5.68567C7.18835 4.10386 9.26946 3.1481 11.4821 3Z" fill="#5783CB"/>
<path d="M18.8021 7.66497C19.4021 7.00497 20.6471 7.36497 20.7821 8.24997C20.9771 9.04497 20.2121 9.71997 19.4321 9.65997C18.3971 10.71 17.5721 11.955 16.8671 13.26C16.5821 13.65 16.9421 14.16 16.7171 14.565C16.4471 15.36 15.2771 15.525 14.7671 14.865C14.3921 14.445 14.4971 13.86 14.6921 13.395C14.4066 12.8025 14.0267 12.2604 13.5671 11.79L13.1171 11.805C12.132 12.8905 11.3177 14.1196 10.7021 15.45C10.8071 15.855 10.8821 16.335 10.5971 16.695C10.2221 17.31 9.2321 17.37 8.7671 16.8C8.4221 16.41 8.4671 15.855 8.6471 15.39C8.12926 13.9817 7.38996 12.6652 6.4571 11.49C5.8721 11.46 5.2571 11.115 5.1821 10.5C4.9871 9.65997 5.9471 8.84997 6.7421 9.22497C7.4471 9.47997 7.6421 10.38 7.2971 10.995C7.86377 12.4332 8.65901 13.7704 9.6521 14.955C10.7316 13.885 11.6105 12.6301 12.2471 11.25C12.1271 10.845 12.0521 10.38 12.3221 10.005C12.7271 9.34497 13.8071 9.32997 14.2271 9.98997C14.5421 10.395 14.4371 10.935 14.2571 11.37C14.5356 11.9637 14.905 12.5103 15.3521 12.99L15.8021 12.96C16.8971 11.805 17.9021 10.53 18.5771 9.07497C18.5021 8.59497 18.4121 8.02497 18.8171 7.66497H18.8021Z" fill="#5783CB"/>
</svg>

<svg width="24" height="24" viewBox="0 0 24 24" fill="none"><path fill="#5783cb" d="M11.482 3h.93a8.7 8.7 0 0 1 5.46 2.28c.255.165.255.57-.045.675-.255.06-.45-.165-.645-.3a8.055 8.055 0 0 0-11.1 1.29 7.875 7.875 0 0 0 8.7 12.405 8.1 8.1 0 0 0 5.28-6 10 10 0 0 0 .255-1.665.316.316 0 0 1 .63.06l-.03.93a8.74 8.74 0 0 1-2.58 5.745 8.94 8.94 0 0 1-5.85 2.58h-.885a9.015 9.015 0 0 1-8.55-8.58v-.84A9.045 9.045 0 0 1 11.482 3"/><path fill="#5783cb" d="M18.802 7.665c.6-.66 1.845-.3 1.98.585.195.795-.57 1.47-1.35 1.41-1.035 1.05-1.86 2.295-2.565 3.6-.285.39.075.9-.15 1.305-.27.795-1.44.96-1.95.3-.375-.42-.27-1.005-.075-1.47a6 6 0 0 0-1.125-1.605l-.45.015a14.5 14.5 0 0 0-2.415 3.645c.105.405.18.885-.105 1.245-.375.615-1.365.675-1.83.105-.345-.39-.3-.945-.12-1.41a14.1 14.1 0 0 0-2.19-3.9c-.585-.03-1.2-.375-1.275-.99-.195-.84.765-1.65 1.56-1.275.705.255.9 1.155.555 1.77a14.4 14.4 0 0 0 2.355 3.96 12.7 12.7 0 0 0 2.595-3.705c-.12-.405-.195-.87.075-1.245.405-.66 1.485-.675 1.905-.015.315.405.21.945.03 1.38a6.3 6.3 0 0 0 1.095 1.62l.45-.03c1.095-1.155 2.1-2.43 2.775-3.885-.075-.48-.165-1.05.24-1.41z"/></svg>
